;FLAVOR:Marlin
;TIME:1192
;Filament used: 0.950574m
;Layer height: 0.15
;MINX:13.7
;MINY:13.7
;MINZ:0.3
;MAXX:206.3
;MAXY:206.3
;MAXZ:0.5
;Generated with Cura_SteamEngine master
M140 S100
M105
M190 S100
M104 S250
M105
M109 S250
M82 ;absolute extrusion mode
M109 S100; FAZ AQUECIMENTO DO BICO
G28; HOME GERAL
M400
G29 V4 T ; AUTO NIVELAMENTO
M400
M104 S245; FAZ PRE AQUECIMENTO DO BICO
G1 X1 Y1 Z0.8 F1000; VAI PRA PONTO DE PURGA
M109 S245; FAZ AQUECIMENTO DO BICO
G92 E0; RESETA EXTRUSOR
G1 X1.0 E9.0 F1000.0 ; PURGA
G1 X100.0 E12.5 F1000.0 ; PURGA
M117 IMPRIMINDO...
M400;
G92 E0
G92 E0
G1 F3900 E-3.5
;LAYER_COUNT:1
;LAYER:0
M107
G1 F600 Z0.5
G0 F12000 X15.114 Y14.83 Z0.5
;TYPE:SKIRT
G1 F600 Z0.3
G1 F3900 E0
G1 F3000 X15.573 Y14.466 E0.03799
G1 X16.077 Y14.167 E0.076
G1 X16.618 Y13.94 E0.11405
G1 X17.184 Y13.789 E0.15205
G1 X17.888 Y13.711 E0.19799
G1 X18.33 Y13.7 E0.22666
G1 X37.354 Y13.7 E1.46051
G1 X38.057 Y13.71 E1.5061
G1 X38.641 Y13.759 E1.54411
G1 X39.254 Y13.898 E1.58488
G1 X40.273 Y14.21 E1.654
G1 X40.981 Y14.438 E1.70224
G1 X43.583 Y15.194 E1.87798
G1 X46.194 Y15.874 E2.05297
G1 X48.835 Y16.483 E2.22875
G1 X51.491 Y17.019 E2.40449
G1 X54.158 Y17.474 E2.57996
G1 X56.855 Y17.86 E2.75666
G1 X59.523 Y18.163 E2.93081
G1 X62.202 Y18.391 E3.10519
G1 X64.93 Y18.547 E3.28241
G1 X67.618 Y18.624 E3.45682
G1 X70.345 Y18.624 E3.63369
G1 X73.034 Y18.549 E3.80816
G1 X75.723 Y18.397 E3.98284
G1 X78.443 Y18.167 E4.15988
G1 X81.144 Y17.861 E4.33618
G1 X83.815 Y17.482 E4.51115
G1 X86.481 Y17.025 E4.68658
G1 X89.081 Y16.505 E4.85855
G1 X91.788 Y15.883 E5.03869
G1 X94.388 Y15.207 E5.21293
G1 X96.963 Y14.459 E5.38684
G1 X98.431 Y13.998 E5.48663
G1 X98.68 Y13.918 E5.50359
G1 X99.249 Y13.776 E5.54163
G1 X99.87 Y13.712 E5.58212
G1 X100.33 Y13.7 E5.61196
G1 X119.354 Y13.7 E6.84581
G1 X120.058 Y13.71 E6.89147
G1 X120.642 Y13.759 E6.92948
G1 X121.255 Y13.898 E6.97025
G1 X122.274 Y14.21 E7.03937
G1 X122.982 Y14.438 E7.08761
G1 X125.584 Y15.194 E7.26335
G1 X128.194 Y15.874 E7.43827
G1 X130.82 Y16.48 E7.61306
G1 X133.52 Y17.022 E7.79167
G1 X136.142 Y17.472 E7.96421
G1 X138.855 Y17.86 E8.14196
G1 X141.523 Y18.163 E8.31611
G1 X144.202 Y18.391 E8.4905
G1 X146.93 Y18.547 E8.66771
G1 X149.618 Y18.624 E8.84212
G1 X152.345 Y18.624 E9.01899
G1 X155.034 Y18.549 E9.19346
G1 X157.723 Y18.397 E9.36814
G1 X160.443 Y18.167 E9.54518
G1 X163.144 Y17.861 E9.72148
G1 X165.815 Y17.482 E9.89645
G1 X168.481 Y17.025 E10.07188
G1 X171.081 Y16.505 E10.24385
G1 X173.788 Y15.883 E10.42399
G1 X176.388 Y15.207 E10.59823
G1 X178.963 Y14.459 E10.77214
G1 X180.431 Y13.998 E10.87193
G1 X180.68 Y13.918 E10.88889
G1 X181.249 Y13.776 E10.92693
G1 X181.87 Y13.712 E10.96742
G1 X182.33 Y13.7 E10.99726
G1 X201.348 Y13.7 E12.23072
G1 X202.046 Y13.709 E12.27599
G1 X202.631 Y13.757 E12.31406
G1 X203.203 Y13.883 E12.35205
G1 X203.753 Y14.087 E12.3901
G1 X204.27 Y14.363 E12.42811
G1 X204.745 Y14.706 E12.46611
G1 X205.168 Y15.112 E12.50413
G1 X205.533 Y15.571 E12.54217
G1 X205.832 Y16.075 E12.58018
G1 X206.059 Y16.615 E12.61817
G1 X206.211 Y17.182 E12.65624
G1 X206.289 Y17.888 E12.70231
G1 X206.3 Y18.33 E12.73098
G1 X206.3 Y37.339 E13.96386
G1 X206.289 Y38.065 E14.01095
G1 X206.24 Y38.649 E14.04896
G1 X206.101 Y39.258 E14.08947
G1 X205.79 Y40.274 E14.15838
G1 X205.562 Y40.982 E14.20662
G1 X204.806 Y43.584 E14.38236
G1 X204.131 Y46.172 E14.55583
G1 X203.518 Y48.832 E14.73287
G1 X202.981 Y51.491 E14.90881
G1 X202.53 Y54.131 E15.08251
G1 X202.14 Y56.855 E15.26098
G1 X201.839 Y59.5 E15.43364
G1 X201.609 Y62.198 E15.60926
G1 X201.453 Y64.93 E15.78674
G1 X201.376 Y67.607 E15.96043
G1 X201.376 Y70.345 E16.13801
G1 X201.451 Y73.035 E16.31254
G1 X201.602 Y75.721 E16.48703
G1 X201.833 Y78.443 E16.6642
G1 X202.139 Y81.144 E16.8405
G1 X202.518 Y83.815 E17.01547
G1 X202.975 Y86.481 E17.1909
G1 X203.495 Y89.081 E17.36287
G1 X204.117 Y91.788 E17.54301
G1 X204.793 Y94.388 E17.71725
G1 X205.538 Y96.953 E17.89048
G1 X206.089 Y98.703 E18.00948
G1 X206.212 Y99.185 E18.04174
G1 X206.288 Y99.87 E18.08644
G1 X206.3 Y100.33 E18.11628
G1 X206.3 Y119.339 E19.34916
G1 X206.289 Y120.065 E19.39625
G1 X206.24 Y120.649 E19.43426
G1 X206.101 Y121.258 E19.47477
G1 X205.79 Y122.274 E19.54368
G1 X205.562 Y122.982 E19.59193
G1 X204.806 Y125.584 E19.76766
G1 X204.131 Y128.172 E19.94113
G1 X203.518 Y130.832 E20.11817
G1 X202.981 Y133.491 E20.29411
G1 X202.53 Y136.131 E20.46781
G1 X202.14 Y138.855 E20.64628
G1 X201.839 Y141.5 E20.81894
G1 X201.609 Y144.198 E20.99456
G1 X201.453 Y146.93 E21.17204
G1 X201.376 Y149.607 E21.34573
G1 X201.376 Y152.345 E21.52331
G1 X201.451 Y155.035 E21.69785
G1 X201.602 Y157.721 E21.87233
G1 X201.833 Y160.443 E22.0495
G1 X202.139 Y163.144 E22.2258
G1 X202.518 Y165.815 E22.40077
G1 X202.975 Y168.481 E22.5762
G1 X203.495 Y171.081 E22.74817
G1 X204.117 Y173.788 E22.92832
G1 X204.793 Y176.388 E23.10255
G1 X205.538 Y178.953 E23.27578
G1 X206.089 Y180.703 E23.39478
G1 X206.212 Y181.185 E23.42704
G1 X206.288 Y181.87 E23.47174
G1 X206.3 Y182.33 E23.50159
G1 X206.3 Y201.317 E24.73303
G1 X206.291 Y202.044 E24.78019
G1 X206.243 Y202.628 E24.81819
G1 X206.117 Y203.201 E24.85624
G1 X205.914 Y203.751 E24.89426
G1 X205.639 Y204.268 E24.93224
G1 X205.295 Y204.743 E24.97028
G1 X204.89 Y205.167 E25.00831
G1 X204.431 Y205.532 E25.04634
G1 X203.927 Y205.831 E25.08435
G1 X203.387 Y206.058 E25.12234
G1 X202.821 Y206.21 E25.16035
G1 X202.112 Y206.289 E25.20662
G1 X201.67 Y206.3 E25.2353
G1 X182.646 Y206.3 E26.46914
G1 X181.943 Y206.29 E26.51474
G1 X181.359 Y206.241 E26.55275
G1 X180.746 Y206.102 E26.59352
G1 X179.727 Y205.79 E26.66264
G1 X179.019 Y205.562 E26.71088
G1 X176.417 Y204.806 E26.88662
G1 X173.806 Y204.126 E27.06161
G1 X171.165 Y203.517 E27.23739
G1 X168.509 Y202.981 E27.41312
G1 X165.842 Y202.526 E27.5886
G1 X163.145 Y202.14 E27.7653
G1 X160.477 Y201.837 E27.93945
G1 X157.798 Y201.609 E28.11383
G1 X155.07 Y201.453 E28.29105
G1 X152.382 Y201.376 E28.46546
G1 X149.655 Y201.376 E28.64232
G1 X146.966 Y201.451 E28.81679
G1 X144.277 Y201.603 E28.99147
G1 X141.557 Y201.833 E29.16851
G1 X138.856 Y202.139 E29.34481
G1 X136.185 Y202.518 E29.51978
G1 X133.519 Y202.975 E29.69521
G1 X130.919 Y203.495 E29.86718
G1 X128.212 Y204.117 E30.04733
G1 X125.612 Y204.793 E30.22156
G1 X123.037 Y205.541 E30.39547
G1 X121.569 Y206.002 E30.49527
G1 X121.32 Y206.082 E30.51223
G1 X120.751 Y206.224 E30.55027
G1 X120.13 Y206.288 E30.59076
G1 X119.67 Y206.3 E30.6206
G1 X100.646 Y206.3 E31.85444
G1 X99.943 Y206.29 E31.90004
G1 X99.359 Y206.241 E31.93805
G1 X98.746 Y206.102 E31.97882
G1 X97.727 Y205.79 E32.04794
G1 X97.019 Y205.562 E32.09618
G1 X94.417 Y204.806 E32.27192
G1 X91.806 Y204.126 E32.44691
G1 X89.165 Y203.517 E32.62269
G1 X86.509 Y202.981 E32.79843
G1 X83.842 Y202.526 E32.9739
G1 X81.145 Y202.14 E33.1506
G1 X78.477 Y201.837 E33.32475
G1 X75.798 Y201.609 E33.49913
G1 X73.07 Y201.453 E33.67635
G1 X70.382 Y201.376 E33.85076
G1 X67.655 Y201.376 E34.02763
G1 X64.966 Y201.451 E34.2021
G1 X62.277 Y201.603 E34.37678
G1 X59.557 Y201.833 E34.55382
G1 X56.856 Y202.139 E34.73012
G1 X54.185 Y202.518 E34.90509
G1 X51.519 Y202.975 E35.08052
G1 X48.919 Y203.495 E35.25249
G1 X46.212 Y204.117 E35.43263
G1 X43.612 Y204.793 E35.60686
G1 X41.037 Y205.541 E35.78078
G1 X39.569 Y206.002 E35.88057
G1 X39.32 Y206.082 E35.89753
G1 X38.751 Y206.224 E35.93557
G1 X38.13 Y206.288 E35.97606
G1 X37.67 Y206.3 E36.0059
G1 X18.652 Y206.3 E37.23936
G1 X17.954 Y206.291 E37.28463
G1 X17.369 Y206.243 E37.3227
G1 X16.797 Y206.117 E37.36069
G1 X16.247 Y205.913 E37.39874
G1 X15.73 Y205.637 E37.43675
G1 X15.255 Y205.294 E37.47474
G1 X14.832 Y204.888 E37.51277
G1 X14.467 Y204.429 E37.55081
G1 X14.168 Y203.925 E37.58881
G1 X13.941 Y203.385 E37.62681
G1 X13.789 Y202.818 E37.66488
G1 X13.711 Y202.107 E37.71127
G1 X13.7 Y201.658 E37.7404
G1 X13.701 Y182.64 E38.97385
G1 X13.712 Y181.934 E39.01965
G1 X13.761 Y181.35 E39.05766
G1 X13.899 Y180.743 E39.09803
G1 X14.21 Y179.727 E39.16694
G1 X14.438 Y179.019 E39.21518
G1 X15.194 Y176.417 E39.39092
G1 X15.874 Y173.806 E39.56591
G1 X16.483 Y171.165 E39.7417
G1 X17.019 Y168.509 E39.91743
G1 X17.474 Y165.842 E40.0929
G1 X17.86 Y163.145 E40.26961
G1 X18.163 Y160.477 E40.44376
G1 X18.391 Y157.798 E40.61814
G1 X18.547 Y155.07 E40.79536
G1 X18.624 Y152.382 E40.96977
G1 X18.624 Y149.655 E41.14663
G1 X18.549 Y146.965 E41.32117
G1 X18.397 Y144.277 E41.49578
G1 X18.167 Y141.56 E41.67263
G1 X17.861 Y138.852 E41.84938
G1 X17.482 Y136.184 E42.02416
G1 X17.025 Y133.519 E42.19952
G1 X16.505 Y130.919 E42.37149
G1 X15.883 Y128.212 E42.55163
G1 X15.207 Y125.612 E42.72587
G1 X14.461 Y123.044 E42.89931
G1 X13.912 Y121.299 E43.01795
G1 X13.773 Y120.729 E43.05601
G1 X13.712 Y120.127 E43.09525
G1 X13.7 Y119.67 E43.1249
G1 X13.701 Y100.64 E44.35913
G1 X13.712 Y99.934 E44.40493
G1 X13.761 Y99.35 E44.44294
G1 X13.899 Y98.743 E44.48331
G1 X14.21 Y97.727 E44.55222
G1 X14.438 Y97.019 E44.60047
G1 X15.194 Y94.417 E44.7762
G1 X15.874 Y91.806 E44.95119
G1 X16.483 Y89.165 E45.12698
G1 X17.019 Y86.509 E45.30271
G1 X17.474 Y83.842 E45.47818
G1 X17.86 Y81.145 E45.65489
G1 X18.163 Y78.477 E45.82904
G1 X18.391 Y75.798 E46.00342
G1 X18.547 Y73.07 E46.18064
G1 X18.624 Y70.382 E46.35505
G1 X18.624 Y67.655 E46.53191
G1 X18.549 Y64.965 E46.70645
G1 X18.397 Y62.277 E46.88106
G1 X18.167 Y59.56 E47.05791
G1 X17.861 Y56.852 E47.23466
G1 X17.482 Y54.184 E47.40944
G1 X17.025 Y51.519 E47.5848
G1 X16.505 Y48.919 E47.75677
G1 X15.883 Y46.212 E47.93692
G1 X15.207 Y43.612 E48.11115
G1 X14.461 Y41.044 E48.28459
G1 X13.912 Y39.299 E48.40323
G1 X13.773 Y38.729 E48.44129
G1 X13.712 Y38.127 E48.48053
G1 X13.7 Y37.67 E48.51018
G1 X13.7 Y18.616 E49.74597
G1 X13.709 Y17.951 E49.7891
G1 X13.757 Y17.367 E49.82711
G1 X13.884 Y16.794 E49.86517
G1 X14.088 Y16.245 E49.90316
G1 X14.364 Y15.728 E49.94117
G1 X14.708 Y15.253 E49.97921
G1 X15.114 Y14.83 E50.01723
G0 F12000 X15.62 Y15.08
G1 F3000 X16.07 Y14.764 E50.0529
G1 X16.561 Y14.517 E50.08854
G1 X17.082 Y14.344 E50.12415
G1 X17.624 Y14.249 E50.15984
G1 X18.224 Y14.221 E50.19879
G1 X37.347 Y14.22 E51.43906
G1 X38.05 Y14.23 E51.48466
G1 X38.597 Y14.278 E51.52027
G1 X39.102 Y14.395 E51.55389
G1 X40.114 Y14.705 E51.62254
G1 X40.82 Y14.932 E51.67064
G1 X43.443 Y15.695 E51.84781
G1 X46.089 Y16.384 E52.02514
G1 X48.724 Y16.992 E52.20053
G1 X51.402 Y17.532 E52.37772
G1 X54.065 Y17.986 E52.55292
G1 X56.757 Y18.371 E52.7293
G1 X59.493 Y18.682 E52.90789
G1 X62.166 Y18.91 E53.08188
G1 X64.92 Y19.067 E53.26079
G1 X67.603 Y19.144 E53.43487
G1 X70.323 Y19.144 E53.61128
G1 X73.08 Y19.067 E53.79016
G1 X75.794 Y18.914 E53.96647
G1 X78.473 Y18.687 E54.14084
G1 X81.206 Y18.378 E54.31923
G1 X83.873 Y17.999 E54.49394
G1 X86.562 Y17.539 E54.67087
G1 X89.224 Y17.006 E54.84695
G1 X91.9 Y16.391 E55.02503
G1 X94.525 Y15.708 E55.20095
G1 X97.169 Y14.94 E55.37952
G1 X98.558 Y14.504 E55.47394
G1 X98.84 Y14.413 E55.49316
G1 X99.374 Y14.282 E55.52882
G1 X99.886 Y14.232 E55.56219
G1 X100.33 Y14.22 E55.59099
G1 X119.347 Y14.22 E56.82438
G1 X120.051 Y14.23 E56.87005
G1 X120.598 Y14.278 E56.90566
G1 X121.103 Y14.395 E56.93928
G1 X122.115 Y14.705 E57.00793
G1 X122.821 Y14.932 E57.05603
G1 X125.444 Y15.695 E57.2332
G1 X128.089 Y16.384 E57.41047
G1 X130.702 Y16.987 E57.5844
G1 X133.404 Y17.53 E57.76314
G1 X136.084 Y17.989 E57.93949
G1 X138.757 Y18.371 E58.11462
G1 X141.493 Y18.682 E58.29321
G1 X144.166 Y18.91 E58.4672
G1 X146.92 Y19.067 E58.64611
G1 X149.603 Y19.144 E58.82019
G1 X152.323 Y19.144 E58.9966
G1 X155.08 Y19.067 E59.17549
G1 X157.794 Y18.914 E59.35179
G1 X160.473 Y18.687 E59.52616
G1 X163.206 Y18.378 E59.70455
G1 X165.873 Y17.999 E59.87926
G1 X168.562 Y17.539 E60.05619
G1 X171.224 Y17.006 E60.23227
G1 X173.9 Y16.391 E60.41035
G1 X176.525 Y15.708 E60.58627
G1 X179.169 Y14.94 E60.76484
G1 X180.558 Y14.504 E60.85926
G1 X180.84 Y14.413 E60.87848
G1 X181.374 Y14.282 E60.91414
G1 X181.886 Y14.232 E60.94751
G1 X182.33 Y14.22 E60.97631
G1 X201.342 Y14.22 E62.20938
G1 X202.04 Y14.229 E62.25465
G1 X202.587 Y14.276 E62.29026
G1 X203.122 Y14.402 E62.32591
G1 X203.633 Y14.604 E62.36155
G1 X204.11 Y14.878 E62.39723
G1 X204.541 Y15.219 E62.43287
G1 X204.919 Y15.618 E62.46852
G1 X205.234 Y16.068 E62.50414
G1 X205.482 Y16.559 E62.53982
G1 X205.655 Y17.08 E62.57542
G1 X205.751 Y17.621 E62.61106
G1 X205.779 Y18.224 E62.65021
G1 X205.78 Y37.331 E63.88944
G1 X205.769 Y38.057 E63.93653
G1 X205.72 Y38.605 E63.97221
G1 X205.604 Y39.106 E64.00557
G1 X205.295 Y40.115 E64.07401
G1 X205.068 Y40.821 E64.12211
G1 X204.303 Y43.451 E64.29975
G1 X203.616 Y46.089 E64.47655
G1 X203.008 Y48.724 E64.65194
G1 X202.473 Y51.377 E64.82747
G1 X202.015 Y54.058 E65.00387
G1 X201.63 Y56.752 E65.18037
G1 X201.318 Y59.493 E65.35929
G1 X201.09 Y62.166 E65.53329
G1 X200.933 Y64.92 E65.71219
G1 X200.856 Y67.603 E65.88628
G1 X200.856 Y70.323 E66.06269
G1 X200.933 Y73.079 E66.24151
G1 X201.086 Y75.796 E66.418
G1 X201.313 Y78.473 E66.59225
G1 X201.619 Y81.18 E66.76893
G1 X202.001 Y83.873 E66.94534
G1 X202.461 Y86.562 E67.12228
G1 X202.994 Y89.224 E67.29835
G1 X203.609 Y91.9 E67.47644
G1 X204.291 Y94.521 E67.65209
G1 X205.042 Y97.109 E67.82686
G1 X205.593 Y98.859 E67.94586
G1 X205.714 Y99.351 E67.97872
G1 X205.768 Y99.886 E68.01359
G1 X205.78 Y100.33 E68.0424
G1 X205.78 Y119.331 E69.27475
G1 X205.769 Y120.057 E69.32184
G1 X205.72 Y120.605 E69.35753
G1 X205.604 Y121.106 E69.39088
G1 X205.295 Y122.115 E69.45932
G1 X205.068 Y122.821 E69.50742
G1 X204.303 Y125.451 E69.68506
G1 X203.616 Y128.089 E69.86186
G1 X203.008 Y130.724 E70.03725
G1 X202.473 Y133.377 E70.21278
G1 X202.015 Y136.058 E70.38918
G1 X201.63 Y138.752 E70.56569
G1 X201.318 Y141.493 E70.74461
G1 X201.09 Y144.166 E70.9186
G1 X200.933 Y146.92 E71.09751
G1 X200.856 Y149.603 E71.27159
G1 X200.856 Y152.323 E71.448
G1 X200.933 Y155.079 E71.62682
G1 X201.086 Y157.796 E71.80331
G1 X201.313 Y160.473 E71.97756
G1 X201.619 Y163.18 E72.15425
G1 X202.001 Y165.873 E72.33066
G1 X202.461 Y168.562 E72.50759
G1 X202.994 Y171.224 E72.68367
G1 X203.609 Y173.9 E72.86175
G1 X204.291 Y176.521 E73.0374
G1 X205.042 Y179.109 E73.21218
G1 X205.593 Y180.859 E73.33117
G1 X205.714 Y181.351 E73.36403
G1 X205.768 Y181.886 E73.39891
G1 X205.78 Y182.33 E73.42771
G1 X205.78 Y201.311 E74.65877
G1 X205.771 Y202.038 E74.70592
G1 X205.724 Y202.585 E74.74153
G1 X205.598 Y203.12 E74.77718
G1 X205.396 Y203.631 E74.81282
G1 X205.123 Y204.108 E74.84846
G1 X204.783 Y204.54 E74.88412
G1 X204.384 Y204.917 E74.91972
G1 X203.934 Y205.233 E74.95538
G1 X203.443 Y205.481 E74.99106
G1 X202.922 Y205.655 E75.02668
G1 X202.381 Y205.751 E75.06232
G1 X201.776 Y205.779 E75.1016
G1 X182.653 Y205.78 E76.34187
G1 X181.95 Y205.77 E76.38747
G1 X181.403 Y205.722 E76.42308
G1 X180.898 Y205.605 E76.4567
G1 X179.886 Y205.295 E76.52535
G1 X179.18 Y205.068 E76.57344
G1 X176.551 Y204.303 E76.75103
G1 X173.911 Y203.616 E76.92795
G1 X171.276 Y203.008 E77.10334
G1 X168.598 Y202.468 E77.28052
G1 X165.935 Y202.014 E77.45573
G1 X163.243 Y201.629 E77.6321
G1 X160.507 Y201.318 E77.8107
G1 X157.834 Y201.09 E77.98469
G1 X155.08 Y200.933 E78.1636
G1 X152.397 Y200.856 E78.33768
G1 X149.677 Y200.856 E78.51409
G1 X146.92 Y200.933 E78.69297
G1 X144.206 Y201.086 E78.86927
G1 X141.527 Y201.313 E79.04365
G1 X138.794 Y201.622 E79.22203
G1 X136.127 Y202.001 E79.39675
G1 X133.438 Y202.461 E79.57368
G1 X130.776 Y202.994 E79.74976
G1 X128.1 Y203.609 E79.92784
G1 X125.479 Y204.291 E80.10349
G1 X122.831 Y205.06 E80.28233
G1 X121.442 Y205.496 E80.37675
G1 X121.16 Y205.587 E80.39597
G1 X120.626 Y205.718 E80.43163
G1 X120.114 Y205.768 E80.46499
G1 X119.67 Y205.78 E80.4938
G1 X100.653 Y205.78 E81.72719
G1 X99.95 Y205.77 E81.77279
G1 X99.403 Y205.722 E81.8084
G1 X98.898 Y205.605 E81.84202
G1 X97.886 Y205.295 E81.91067
G1 X97.18 Y205.068 E81.95877
G1 X94.551 Y204.303 E82.13635
G1 X91.911 Y203.616 E82.31328
G1 X89.276 Y203.008 E82.48866
G1 X86.598 Y202.468 E82.66585
G1 X83.935 Y202.014 E82.84106
G1 X81.243 Y201.629 E83.01743
G1 X78.507 Y201.318 E83.19602
G1 X75.834 Y201.09 E83.37001
G1 X73.08 Y200.933 E83.54892
G1 X70.397 Y200.856 E83.723
G1 X67.677 Y200.856 E83.89941
G1 X64.92 Y200.933 E84.0783
G1 X62.206 Y201.086 E84.2546
