;FLAVOR:Marlin
;TIME:2644
;Filament used: 1.82575m
;Layer height: 0.15
;MINX:62.524
;MINY:82.897
;MINZ:0.3
;MAXX:157.46
;MAXY:137.093
;MAXZ:20.45
;Generated with Cura_SteamEngine master
M140 S100
M105
M190 S100
M104 S250
M105
M109 S250
M82 ;absolute extrusion mode
M109 S100; FAZ AQUECIMENTO DO BICO
G28; HOME GERAL
M400
G29 V4 T ; AUTO NIVELAMENTO
M400
M104 S245; FAZ PRE AQUECIMENTO DO BICO
G1 X1 Y1 Z0.8 F1000; VAI PRA PONTO DE PURGA
M109 S245; FAZ AQUECIMENTO DO BICO
G92 E0; RESETA EXTRUSOR
G1 X1.0 E9.0 F1000.0 ; PURGA
G1 X100.0 E12.5 F1000.0 ; PURGA
M117 IMPRIMINDO...
M400;
G92 E0
G92 E0
G1 F3900 E-3.5
;LAYER_COUNT:134
;LAYER:0
M107
G1 F600 Z0.5
G0 F12000 X64.403 Y83.659 Z0.5
;TYPE:SKIRT
G1 F600 Z0.3
G1 F3900 E0
G1 F3000 X64.908 Y83.361 E0.03803
G1 X65.449 Y83.135 E0.07606
G1 X66.016 Y82.985 E0.1141
G1 X66.713 Y82.908 E0.15958
G1 X67.379 Y82.897 E0.20278
G1 X68.078 Y82.907 E0.24812
G1 X68.416 Y82.926 E0.27007
G1 X69.051 Y83.032 E0.31183
G1 X70.3 Y83.338 E0.39523
G1 X72.94 Y83.947 E0.57095
G1 X75.644 Y84.491 E0.74984
G1 X78.273 Y84.941 E0.92283
G1 X80.991 Y85.33 E1.10091
G1 X83.659 Y85.633 E1.27506
G1 X86.337 Y85.861 E1.44937
G1 X89.066 Y86.017 E1.62666
G1 X91.753 Y86.094 E1.801
G1 X94.48 Y86.094 E1.97787
G1 X97.17 Y86.019 E2.1524
G1 X99.858 Y85.867 E2.32702
G1 X102.571 Y85.637 E2.5036
G1 X105.285 Y85.329 E2.68076
G1 X107.945 Y84.951 E2.85501
G1 X110.62 Y84.493 E3.03103
G1 X113.258 Y83.966 E3.2055
G1 X115.865 Y83.366 E3.37901
G1 X116.437 Y83.22 E3.41729
G1 X117.233 Y83.028 E3.4704
G1 X118.036 Y82.913 E3.52301
G1 X118.766 Y82.898 E3.57037
G1 X119.516 Y82.907 E3.61901
G1 X119.76 Y82.918 E3.63486
G1 X121.641 Y83.053 E3.75717
G1 X124.36 Y83.195 E3.93375
G1 X127.087 Y83.262 E4.11067
G1 X129.778 Y83.25 E4.2852
G1 X132.495 Y83.163 E4.46151
G1 X135.314 Y82.99 E4.64469
G1 X136.185 Y82.924 E4.70134
G1 X136.437 Y82.913 E4.7177
G1 X137.331 Y82.899 E4.77569
G1 X137.859 Y82.907 E4.80994
G1 X138.825 Y82.947 E4.87264
G1 X141.546 Y83.025 E5.04919
G1 X144.272 Y83.025 E5.22599
G1 X146.98 Y82.949 E5.4017
G1 X147.67 Y82.915 E5.4465
G1 X148.354 Y82.897 E5.49088
G1 X148.578 Y82.897 E5.50541
G1 X149.28 Y82.907 E5.55094
G1 X149.864 Y82.956 E5.58895
G1 X150.437 Y83.083 E5.62702
G1 X150.986 Y83.287 E5.665
G1 X151.503 Y83.564 E5.70304
G1 X151.977 Y83.908 E5.74103
G1 X152.4 Y84.314 E5.77906
G1 X152.716 Y84.704 E5.81161
G1 X152.906 Y84.981 E5.8334
G1 X153.464 Y85.851 E5.90043
G1 X153.549 Y85.988 E5.91089
G1 X153.927 Y86.629 E5.95915
G1 X154.001 Y86.759 E5.96885
G1 X154.368 Y87.434 E6.01868
G1 X154.443 Y87.58 E6.02933
G1 X154.805 Y88.311 E6.08224
G1 X154.873 Y88.453 E6.09245
G1 X155.205 Y89.19 E6.14487
G1 X155.267 Y89.336 E6.15516
G1 X155.546 Y90.022 E6.20319
G1 X155.602 Y90.167 E6.21327
G1 X155.901 Y90.986 E6.26982
G1 X155.951 Y91.129 E6.27965
G1 X156.195 Y91.878 E6.33074
G1 X156.239 Y92.023 E6.34056
G1 X156.472 Y92.834 E6.39529
G1 X156.514 Y92.992 E6.40589
G1 X156.725 Y93.848 E6.46307
G1 X156.758 Y93.994 E6.47278
G1 X156.929 Y94.809 E6.52679
G1 X156.957 Y94.955 E6.53643
G1 X157.104 Y95.8 E6.59206
G1 X157.127 Y95.948 E6.60177
G1 X157.235 Y96.729 E6.65291
G1 X157.253 Y96.879 E6.66271
G1 X157.354 Y97.862 E6.7268
G1 X157.367 Y98.015 E6.73676
G1 X157.424 Y98.87 E6.79233
G1 X157.432 Y99.019 E6.80201
G1 X157.458 Y99.833 E6.85483
G1 X157.46 Y99.978 E6.86424
G1 X157.458 Y101.025 E6.93214
G1 X157.455 Y101.178 E6.94207
G1 X157.425 Y101.98 E6.99412
G1 X157.417 Y102.131 E7.00393
G1 X157.344 Y103.135 E7.06922
G1 X157.331 Y103.276 E7.0784
G1 X157.241 Y104.125 E7.13377
G1 X157.223 Y104.274 E7.14351
G1 X157.079 Y105.293 E7.21025
G1 X157.055 Y105.442 E7.22004
G1 X156.899 Y106.321 E7.27794
G1 X156.872 Y106.46 E7.28712
G1 X156.667 Y107.429 E7.35136
G1 X156.635 Y107.569 E7.36068
G1 X156.416 Y108.457 E7.42
G1 X156.377 Y108.603 E7.4298
G1 X156.081 Y109.644 E7.49999
G1 X156.04 Y109.781 E7.50926
G1 X155.751 Y110.682 E7.57063
G1 X155.704 Y110.82 E7.58009
G1 X155.367 Y111.76 E7.64485
G1 X155.316 Y111.895 E7.65421
G1 X154.934 Y112.858 E7.72141
G1 X154.878 Y112.991 E7.73076
G1 X154.499 Y113.86 E7.79225
G1 X154.438 Y113.994 E7.8018
G1 X153.878 Y115.163 E7.88587
G1 X153.452 Y115.987 E7.94603
G1 X153.383 Y116.115 E7.95546
G1 X152.837 Y117.089 E8.02788
G1 X152.763 Y117.216 E8.03742
G1 X152.239 Y118.08 E8.10295
G1 X152.165 Y118.198 E8.11199
G1 X151.542 Y119.154 E8.18599
G1 X151.459 Y119.276 E8.19556
G1 X150.876 Y120.107 E8.2614
G1 X150.792 Y120.222 E8.27064
G1 X150.099 Y121.143 E8.34539
G1 X150.018 Y121.247 E8.35394
G1 X149.356 Y122.073 E8.4226
G1 X149.259 Y122.19 E8.43245
G1 X148.527 Y123.04 E8.50521
G1 X148.44 Y123.138 E8.51371
G1 X147.67 Y123.979 E8.58766
G1 X147.571 Y124.084 E8.59702
G1 X146.816 Y124.855 E8.66701
G1 X146.714 Y124.955 E8.67627
G1 X145.839 Y125.791 E8.75476
G1 X145.738 Y125.885 E8.76371
G1 X144.915 Y126.622 E8.83536
G1 X144.809 Y126.714 E8.84446
G1 X143.904 Y127.473 E8.92107
G1 X143.794 Y127.562 E8.93025
G1 X142.878 Y128.28 E9.00573
G1 X142.771 Y128.361 E9.01444
G1 X141.814 Y129.064 E9.09145
G1 X141.696 Y129.148 E9.10085
G1 X140.705 Y129.826 E9.17872
G1 X140.591 Y129.901 E9.18757
G1 X139.595 Y130.537 E9.26422
G1 X139.472 Y130.613 E9.27359
G1 X138.413 Y131.24 E9.35341
G1 X138.301 Y131.304 E9.36178
G1 X137.258 Y131.88 E9.43906
G1 X137.13 Y131.948 E9.44846
G1 X136.018 Y132.514 E9.52938
G1 X135.899 Y132.572 E9.53797
G1 X134.767 Y133.105 E9.61912
G1 X134.637 Y133.164 E9.62838
G1 X133.514 Y133.648 E9.70769
G1 X133.391 Y133.699 E9.71633
G1 X132.152 Y134.188 E9.80272
G1 X132.019 Y134.238 E9.81193
G1 X130.89 Y134.641 E9.88968
G1 X130.762 Y134.684 E9.89844
G1 X129.514 Y135.086 E9.98347
G1 X129.386 Y135.125 E9.99215
G1 X128.15 Y135.481 E10.07558
G1 X128.014 Y135.518 E10.08472
G1 X126.705 Y135.849 E10.17229
G1 X126.573 Y135.88 E10.18108
G1 X125.37 Y136.144 E10.26096
G1 X125.236 Y136.171 E10.26983
G1 X123.878 Y136.424 E10.35942
G1 X123.743 Y136.447 E10.3683
G1 X122.447 Y136.646 E10.45334
G1 X122.314 Y136.664 E10.46205
G1 X120.976 Y136.827 E10.54947
G1 X120.837 Y136.842 E10.55853
G1 X119.488 Y136.962 E10.64637
G1 X119.355 Y136.972 E10.65502
G1 X117.973 Y137.052 E10.7448
G1 X117.836 Y137.058 E10.7537
G1 X116.525 Y137.092 E10.83875
G1 X116.393 Y137.093 E10.84732
G1 X114.935 Y137.086 E10.94188
G1 X114.797 Y137.083 E10.95083
G1 X113.442 Y137.033 E11.03877
G1 X113.306 Y137.026 E11.04761
G1 X111.879 Y136.928 E11.14037
G1 X110.37 Y136.778 E11.23873
G1 X110.238 Y136.763 E11.24734
G1 X108.788 Y136.572 E11.3422
G1 X108.655 Y136.552 E11.35092
G1 X107.288 Y136.328 E11.44076
G1 X107.154 Y136.304 E11.44959
G1 X105.672 Y136.013 E11.54755
G1 X105.546 Y135.986 E11.5559
G1 X104.177 Y135.674 E11.64697
G1 X104.041 Y135.641 E11.65605
G1 X102.6 Y135.263 E11.75267
G1 X102.471 Y135.227 E11.76135
G1 X101.069 Y134.812 E11.85618
G1 X100.943 Y134.773 E11.86474
G1 X99.514 Y134.302 E11.96232
G1 X99.385 Y134.257 E11.97119
G1 X97.997 Y133.75 E12.06703
G1 X97.872 Y133.702 E12.07571
G1 X96.435 Y133.126 E12.17612
G1 X96.31 Y133.074 E12.1849
G1 X94.945 Y132.476 E12.28155
G1 X94.828 Y132.423 E12.28988
G1 X93.44 Y131.765 E12.38951
G1 X91.904 Y130.978 E12.50144
G1 X91.784 Y130.914 E12.51026
G1 X90.488 Y130.196 E12.60636
G1 X90.374 Y130.131 E12.61487
G1 X89.01 Y129.32 E12.71779
G1 X88.897 Y129.25 E12.72641
G1 X87.585 Y128.414 E12.82731
G1 X87.477 Y128.343 E12.83569
G1 X86.194 Y127.47 E12.93634
G1 X86.084 Y127.393 E12.94505
G1 X84.79 Y126.452 E13.04882
G1 X84.682 Y126.371 E13.05757
G1 X83.363 Y125.347 E13.16587
G1 X83.26 Y125.264 E13.17445
G1 X82.052 Y124.265 E13.27612
G1 X81.95 Y124.178 E13.28482
G1 X80.733 Y123.106 E13.39
G1 X80.638 Y123.02 E13.39831
G1 X79.465 Y121.923 E13.50248
G1 X79.368 Y121.829 E13.51124
G1 X78.233 Y120.699 E13.61511
G1 X78.144 Y120.608 E13.62337
G1 X76.936 Y119.331 E13.73738
G1 X76.805 Y119.186 E13.75005
G1 X75.819 Y118.075 E13.84639
G1 X75.736 Y117.979 E13.85462
G1 X74.662 Y116.694 E13.96324
G1 X74.578 Y116.59 E13.97191
G1 X73.533 Y115.258 E14.08172
G1 X73.367 Y115.04 E14.09949
G1 X72.414 Y113.742 E14.20393
G1 X72.267 Y113.536 E14.22034
G1 X71.385 Y112.253 E14.32132
G1 X71.214 Y111.995 E14.34139
G1 X70.36 Y110.67 E14.44363
G1 X69.391 Y109.062 E14.56539
G1 X69.27 Y108.852 E14.58111
G1 X68.505 Y107.486 E14.68265
G1 X68.388 Y107.268 E14.6987
G1 X67.62 Y105.793 E14.80656
G1 X67.519 Y105.591 E14.8212
G1 X66.79 Y104.083 E14.92984
G1 X66.696 Y103.879 E14.94441
G1 X66.033 Y102.391 E15.05006
G1 X65.897 Y102.069 E15.07273
G1 X65.313 Y100.642 E15.17273
G1 X65.187 Y100.32 E15.19516
G1 X64.65 Y98.883 E15.29465
G1 X64.532 Y98.553 E15.31738
G1 X64.006 Y97.001 E15.42367
G1 X63.897 Y96.666 E15.44651
G1 X63.451 Y95.207 E15.54546
G1 X63.327 Y94.778 E15.57443
G1 X62.927 Y93.31 E15.67311
G1 X62.809 Y92.848 E15.70403
G1 X62.655 Y92.212 E15.74647
G1 X62.537 Y91.352 E15.80277
G1 X62.531 Y91.169 E15.81465
G1 X62.524 Y90.614 E15.85065
G1 X62.524 Y87.806 E16.03277
G1 X62.534 Y87.141 E16.0759
G1 X62.583 Y86.557 E16.11391
G1 X62.711 Y85.985 E16.15193
G1 X62.915 Y85.436 E16.18991
G1 X63.192 Y84.919 E16.22795
G1 X63.537 Y84.445 E16.26598
G1 X63.943 Y84.023 E16.30396
G1 X64.403 Y83.659 E16.342
G0 F12000 X64.9 Y83.958
G1 F3000 X65.391 Y83.712 E16.37762
G1 X65.913 Y83.54 E16.41327
G1 X66.728 Y83.427 E16.46663
G1 X67.371 Y83.417 E16.50834
G1 X68.07 Y83.427 E16.55368
G1 X68.369 Y83.444 E16.5731
G1 X68.928 Y83.537 E16.60986
G1 X70.203 Y83.85 E16.695
G1 X72.837 Y84.457 E16.87032
G1 X75.516 Y84.996 E17.04755
G1 X78.221 Y85.459 E17.22554
G1 X80.893 Y85.841 E17.4006
G1 X83.629 Y86.152 E17.57919
G1 X86.301 Y86.38 E17.75312
G1 X89.056 Y86.537 E17.93209
G1 X91.738 Y86.614 E18.10611
G1 X94.458 Y86.614 E18.28252
G1 X97.214 Y86.537 E18.46134
G1 X99.931 Y86.384 E18.63784
G1 X102.6 Y86.158 E18.81156
G1 X105.348 Y85.846 E18.99093
G1 X108.003 Y85.468 E19.16487
G1 X110.701 Y85.007 E19.34239
G1 X113.375 Y84.472 E19.51925
G1 X116.024 Y83.862 E19.69556
G1 X116.559 Y83.725 E19.73137
G1 X117.355 Y83.533 E19.78448
G1 X118.061 Y83.432 E19.83074
G1 X118.771 Y83.418 E19.87679
G1 X119.509 Y83.427 E19.92466
G1 X119.723 Y83.436 E19.93855
G1 X121.623 Y83.572 E20.0621
G1 X124.356 Y83.715 E20.23959
G1 X127.076 Y83.782 E20.41606
G1 X129.796 Y83.77 E20.59247
G1 X132.51 Y83.683 E20.76859
G1 X135.382 Y83.507 E20.95521
G1 X136.224 Y83.443 E21.00997
G1 X136.446 Y83.433 E21.02439
G1 X137.323 Y83.419 E21.08127
G1 X137.954 Y83.43 E21.1222
G1 X138.825 Y83.467 E21.17875
G1 X141.531 Y83.545 E21.35432
G1 X144.25 Y83.545 E21.53067
G1 X147.023 Y83.468 E21.71059
G1 X147.685 Y83.435 E21.75358
G1 X148.354 Y83.417 E21.79698
G1 X148.571 Y83.417 E21.81106
G1 X149.273 Y83.427 E21.85659
G1 X149.82 Y83.475 E21.8922
G1 X150.355 Y83.602 E21.92787
G1 X150.866 Y83.805 E21.96353
G1 X151.342 Y84.079 E21.99915
G1 X151.773 Y84.42 E22.03479
G1 X152.293 Y85.007 E22.08566
G1 X152.469 Y85.261 E22.1057
G1 X153.027 Y86.131 E22.17273
G1 X153.101 Y86.252 E22.18193
G1 X153.479 Y86.893 E22.23019
G1 X153.544 Y87.007 E22.23871
G1 X153.911 Y87.682 E22.28854
G1 X153.977 Y87.811 E22.29793
G1 X154.339 Y88.542 E22.35084
G1 X154.398 Y88.666 E22.35975
G1 X154.73 Y89.403 E22.41217
G1 X154.785 Y89.532 E22.42127
G1 X155.064 Y90.218 E22.4693
G1 X155.114 Y90.346 E22.47821
G1 X155.413 Y91.165 E22.53476
G1 X155.456 Y91.29 E22.54333
G1 X155.7 Y92.039 E22.59442
G1 X155.739 Y92.166 E22.60304
G1 X155.972 Y92.977 E22.65777
G1 X156.009 Y93.116 E22.6671
G1 X156.22 Y93.972 E22.72428
G1 X156.249 Y94.101 E22.73285
G1 X156.42 Y94.916 E22.78686
G1 X156.445 Y95.044 E22.79532
G1 X156.592 Y95.889 E22.85095
G1 X156.612 Y96.019 E22.85948
G1 X156.72 Y96.8 E22.91061
G1 X156.736 Y96.932 E22.91924
G1 X156.837 Y97.915 E22.98333
G1 X156.849 Y98.05 E22.99212
G1 X156.906 Y98.905 E23.04769
G1 X156.912 Y99.035 E23.05613
G1 X156.938 Y99.849 E23.10895
G1 X156.94 Y99.977 E23.11726
G1 X156.938 Y101.024 E23.18516
G1 X156.935 Y101.158 E23.19386
G1 X156.905 Y101.96 E23.24591
G1 X156.898 Y102.093 E23.25455
G1 X156.825 Y103.097 E23.31983
G1 X156.814 Y103.221 E23.32791
G1 X156.724 Y104.07 E23.38328
G1 X156.708 Y104.201 E23.39184
G1 X156.564 Y105.22 E23.45859
G1 X156.543 Y105.352 E23.46725
G1 X156.387 Y106.231 E23.52516
G1 X156.158 Y107.321 E23.59739
G1 X156.13 Y107.444 E23.60557
G1 X155.911 Y108.332 E23.66489
G1 X155.877 Y108.461 E23.67355
G1 X155.581 Y109.502 E23.74374
G1 X155.544 Y109.623 E23.75194
G1 X155.255 Y110.524 E23.81331
G1 X155.214 Y110.645 E23.8216
G1 X154.877 Y111.585 E23.88637
G1 X154.833 Y111.703 E23.89453
G1 X154.451 Y112.666 E23.96173
G1 X154.402 Y112.783 E23.96995
G1 X154.023 Y113.652 E24.03144
G1 X153.969 Y113.77 E24.03986
G1 X153.469 Y114.817 E24.11511
G1 X153.416 Y114.924 E24.12285
G1 X152.99 Y115.748 E24.18301
G1 X152.383 Y116.834 E24.2637
G1 X152.318 Y116.946 E24.2721
G1 X151.794 Y117.81 E24.33764
G1 X151.729 Y117.914 E24.34559
G1 X151.106 Y118.87 E24.4196
G1 X151.033 Y118.977 E24.428
G1 X150.45 Y119.808 E24.49384
G1 X150.376 Y119.91 E24.50201
G1 X149.613 Y120.922 E24.58421
G1 X148.951 Y121.748 E24.65287
G1 X148.865 Y121.851 E24.66157
G1 X148.057 Y122.787 E24.74177
G1 X147.287 Y123.628 E24.81572
G1 X147.2 Y123.72 E24.82393
G1 X146.445 Y124.491 E24.89392
G1 X145.48 Y125.415 E24.98057
G1 X145.391 Y125.498 E24.98847
G1 X144.568 Y126.235 E25.06012
G1 X143.57 Y127.074 E25.14468
G1 X143.473 Y127.153 E25.15279
G1 X142.557 Y127.871 E25.22828
G1 X142.463 Y127.942 E25.23592
G1 X141.506 Y128.645 E25.31293
G1 X141.402 Y128.719 E25.32121
G1 X140.411 Y129.397 E25.39909
G1 X140.311 Y129.463 E25.40686
G1 X139.315 Y130.099 E25.4835
G1 X139.207 Y130.166 E25.49175
G1 X138.148 Y130.793 E25.57157
G1 X137.006 Y131.425 E25.65622
G1 X136.894 Y131.485 E25.66446
G1 X135.782 Y132.051 E25.74539
G1 X134.545 Y132.635 E25.83411
G1 X134.431 Y132.686 E25.84221
G1 X133.2 Y133.215 E25.92911
G1 X131.961 Y133.704 E26.0155
G1 X131.844 Y133.748 E26.0236
G1 X130.715 Y134.151 E26.10135
G1 X130.603 Y134.189 E26.10902
G1 X129.355 Y134.591 E26.19406
G1 X128.006 Y134.981 E26.28514
G1 X127.887 Y135.014 E26.29314
G1 X126.578 Y135.345 E26.38071
G1 X125.258 Y135.636 E26.46838
G1 X125.14 Y135.66 E26.47619
G1 X123.782 Y135.913 E26.56578
G1 X123.664 Y135.933 E26.57355
G1 X122.368 Y136.132 E26.65859
G1 X122.251 Y136.148 E26.66625
G1 X120.913 Y136.311 E26.75367
G1 X120.791 Y136.324 E26.76162
G1 X119.325 Y136.453 E26.85707
G1 X117.943 Y136.533 E26.94685
G1 X117.823 Y136.538 E26.95464
G1 X116.512 Y136.572 E27.0397
G1 X116.396 Y136.573 E27.04722
G1 X114.938 Y136.566 E27.14179
G1 X113.462 Y136.513 E27.23758
G1 X113.342 Y136.507 E27.24537
G1 X111.915 Y136.409 E27.33814
G1 X111.796 Y136.399 E27.34588
G1 X110.306 Y136.248 E27.44302
G1 X108.856 Y136.057 E27.53787
G1 X107.372 Y135.815 E27.63539
G1 X107.255 Y135.794 E27.6431
G1 X105.773 Y135.503 E27.74106
G1 X104.292 Y135.167 E27.83955
G1 X104.173 Y135.138 E27.84749
G1 X102.618 Y134.729 E27.95178
G1 X101.216 Y134.314 E28.04661
G1 X99.677 Y133.808 E28.15168
G1 X99.563 Y133.769 E28.15949
G1 X98.175 Y133.262 E28.25533
G1 X98.066 Y133.22 E28.26291
G1 X96.629 Y132.644 E28.36332
G1 X95.153 Y131.999 E28.46779
G1 X95.051 Y131.953 E28.47505
G1 X93.663 Y131.295 E28.57467
G1 X93.555 Y131.242 E28.58247
G1 X92.141 Y130.516 E28.68556
G1 X90.74 Y129.741 E28.7894
G1 X90.64 Y129.684 E28.79687
G1 X89.276 Y128.873 E28.89979
G1 X89.177 Y128.812 E28.90733
G1 X87.865 Y127.976 E29.00823
G1 X86.487 Y127.04 E29.11627
G1 X86.39 Y126.972 E29.12396
G1 X85.096 Y126.031 E29.22773
G1 X85.001 Y125.96 E29.23542
G1 X83.682 Y124.936 E29.34372
G1 X83.591 Y124.863 E29.35128
G1 X82.383 Y123.864 E29.45295
G1 X82.293 Y123.787 E29.46063
G1 X80.993 Y122.64 E29.57308
G1 X79.82 Y121.543 E29.67724
G1 X79.735 Y121.461 E29.6849
G1 X78.6 Y120.331 E29.78877
G1 X78.522 Y120.251 E29.79602
G1 X77.321 Y118.981 E29.90939
G1 X77.194 Y118.841 E29.92165
G1 X76.208 Y117.73 E30.01799
G1 X75.061 Y116.36 E30.13387
G1 X74.987 Y116.269 E30.14148
G1 X73.946 Y114.942 E30.25087
G1 X73.786 Y114.732 E30.26799
G1 X72.836 Y113.438 E30.3721
G1 X72.695 Y113.241 E30.38782
G1 X71.818 Y111.966 E30.48818
G1 X71.651 Y111.714 E30.50779
G1 X70.803 Y110.397 E30.60938
G1 X70.711 Y110.248 E30.62074
G1 X69.841 Y108.801 E30.73025
G1 X69.724 Y108.598 E30.74544
G1 X68.962 Y107.238 E30.84655
G1 X68.849 Y107.028 E30.86202
G1 X68.084 Y105.559 E30.96944
G1 X67.987 Y105.365 E30.9835
